src/static/logos/magneto.svg

<?xml version="1.0" encoding="UTF-8" standalone="no"?>
<svg width="256px" height="371px" viewBox="0 0 256 371" version="1.1" xmlns="http://www.w3.org/2000/svg" xmlns:xlink="http://www.w3.org/1999/xlink" preserveAspectRatio="xMidYMid">
	<g>
		<path d="M240.040712,137.119593 C237.044275,137.119593 234.373537,138.682952 232.810178,141.02799 L127.80458,276.063104 L127.80458,276.128244 L127.73944,276.063104 L127.73944,275.932824 L127.6743,275.997964 L127.6743,275.932824 L22.7338422,140.89771 C21.1704835,138.552672 18.4997455,136.989313 15.5033079,136.989313 L0.260559796,136.989313 L0.260559796,192.61883 L0.260559796,127.47888 C0.260559796,57.2580153 57.1277354,0.325699746 127.283461,0.325699746 L127.41374,0.325699746 L128.19542,0.325699746 L128.3257,0.325699746 C198.481425,0.325699746 255.348601,57.2580153 255.348601,127.47888 L255.348601,137.054453 L240.040712,137.054453 L240.040712,137.119593 Z" fill="#CB3366"></path>
		<path d="M90.935369,175.552163 L125.329262,219.912468 L125.394402,219.912468 C125.915522,220.498728 126.697201,220.889567 127.60916,220.889567 L127.60916,220.889567 C128.52112,220.889567 129.302799,220.498728 129.823919,219.912468 L129.889059,219.912468 L164.282952,175.552163 L164.282952,228.771501 L127.93486,275.476845 L127.73944,275.216285 L127.73944,275.281425 L127.54402,275.541985 L90.870229,228.445802 L90.935369,175.552163 L90.935369,175.552163 Z M127.80458,275.672265 L127.80458,275.672265 L127.60916,275.476845 L128,275.476845 L127.80458,275.672265 L127.80458,275.672265 Z" fill="#B2345B"></path>
		<path d="M127.60916,149.496183 L93.8015267,105.656997 L127.60916,62.2086514 L127.80458,62.4692112 L127.80458,62.5343511 L128,62.2737913 L161.612214,105.461578 L127.60916,149.496183 L127.60916,149.496183 Z M127.73944,62.0132316 L127.73944,62.0132316 L127.93486,62.2737913 L127.54402,62.2737913 L127.73944,62.0132316 L127.73944,62.0132316 Z" fill="#BF3C65"></path>
		<path d="M127.80458,62.4692112 L127.80458,62.4692112 L127.60916,62.2086514 L127.73944,62.0132316 L127.73944,61.9480916 L127.80458,62.0132316 L127.86972,61.9480916 L127.86972,62.0132316 L128,62.2737913 L127.80458,62.4692112 L127.80458,62.4692112 Z M22.7338422,140.50687 C21.1704835,138.161832 18.4997455,136.598473 15.5033079,136.598473 L0.260559796,136.598473 L0.260559796,127.54402 C0.260559796,80.643257 25.6,39.670229 63.3811705,17.6529262 C84.3562341,18.1740458 102.7257,28.7918575 113.994911,44.816285 L114.060051,44.816285 L127.60916,62.2737913 L44.6860051,168.777608 L22.7338422,140.50687 L22.7338422,140.50687 Z M141.549109,44.816285 L141.614249,44.816285 C152.883461,28.7267176 171.252926,18.1089059 192.16285,17.5877863 C229.94402,39.670229 255.283461,80.643257 255.283461,127.47888 L255.283461,136.663613 L239.975573,136.663613 C236.979135,136.663613 234.308397,138.226972 232.745038,140.57201 L210.792875,168.777608 L127.93486,62.2737913 L141.549109,44.816285 L141.549109,44.816285 Z" fill="#CF406E"></path>
		<path d="M192.61883,17.8483461 C193.595929,18.4346056 194.507888,19.0208651 195.484987,19.5419847 C194.507888,19.0208651 193.595929,18.4346056 192.61883,17.8483461 L192.61883,17.8483461 Z M141.614249,44.816285 L141.549109,44.816285 L128,62.2737913 L127.86972,62.0132316 L127.86972,61.9480916 L127.80458,62.0132316 L127.73944,61.9480916 L127.73944,62.0132316 L127.60916,62.2086514 L113.994911,44.816285 L113.929771,44.816285 C102.7257,28.7918575 84.2259542,18.1740458 63.3160305,17.6529262 C82.0763359,6.70941476 103.898219,0.390839695 127.218321,0.390839695 L127.348601,0.390839695 L128.13028,0.390839695 L128.26056,0.390839695 C151.580662,0.390839695 173.402545,6.64427481 192.16285,17.6529262 C171.252926,18.1089059 152.883461,28.7918575 141.614249,44.816285 L141.614249,44.816285 Z M127.86972,62.4040712 L128,62.2737913 L128.13028,62.4040712 L127.86972,62.4040712 L127.86972,62.4040712 Z M127.47888,62.4040712 L127.60916,62.2737913 L127.73944,62.4040712 L127.47888,62.4040712 L127.47888,62.4040712 Z M62.9251908,17.8483461 C61.9480916,18.4346056 61.0361323,19.0208651 60.0590331,19.5419847 C61.0361323,19.0208651 61.9480916,18.4346056 62.9251908,17.8483461 L62.9251908,17.8483461 Z M63.3811705,17.6529262 L63.3811705,17.6529262 C63.2508906,17.7180662 63.1206107,17.7832061 62.9903308,17.913486 C63.0554707,17.7832061 63.1857506,17.7180662 63.3811705,17.6529262 L63.3811705,17.6529262 Z M192.16285,17.6529262 C192.29313,17.7180662 192.42341,17.7832061 192.55369,17.913486 C192.48855,17.7832061 192.35827,17.7180662 192.16285,17.6529262 L192.16285,17.6529262 L192.16285,17.6529262 Z" fill="#D8517D"></path>
		<path d="M0.260559796,136.663613 L15.5684478,136.663613 C18.5648855,136.663613 21.2356234,138.226972 22.7989822,140.57201 L127.73944,275.541985 L127.73944,275.607125 L127.80458,275.541985 L127.80458,275.672265 L127.86972,275.737405 L127.86972,275.672265 L232.875318,140.57201 C234.438677,138.226972 237.109415,136.663613 240.105852,136.663613 L255.41374,136.663613 L255.41374,192.55369 C255.41374,195.550127 254.371501,198.351145 252.677863,200.565903 L252.677863,200.565903 L130.214758,369.278372 C130.214758,369.278372 129.628499,370.255471 127.93486,370.255471 L127.93486,370.255471 C127.93486,370.255471 127.93486,370.255471 127.86972,370.255471 C127.86972,370.255471 127.86972,370.255471 127.80458,370.255471 L127.80458,370.255471 C126.176081,370.190331 125.524682,369.278372 125.524682,369.278372 L3.06157761,200.565903 C1.36793893,198.351145 0.325699746,195.615267 0.325699746,192.55369 L0.325699746,136.663613 L0.260559796,136.663613 Z" fill="#4B3785"></path>
		<path d="M252.352163,200.956743 L240.040712,200.956743 C237.044275,200.956743 234.373537,199.393384 232.810178,197.048346 L210.858015,168.842748 L232.810178,140.63715 C234.373537,138.292112 237.044275,136.728753 240.040712,136.728753 L255.348601,136.728753 L255.348601,192.61883 C255.348601,195.615267 254.306361,198.416285 252.612723,200.631043 L252.612723,200.631043 L252.352163,200.956743 Z M22.7338422,197.048346 C21.1704835,199.393384 18.4997455,200.956743 15.5033079,200.956743 L3.19185751,200.956743 L8.27277354,207.991858 L2.93129771,200.696183 C1.23765903,198.481425 0.195419847,195.745547 0.195419847,192.683969 L0.195419847,136.663613 L15.5033079,136.663613 C18.4997455,136.663613 21.1704835,138.226972 22.7338422,140.57201 L44.6860051,168.842748 L22.7338422,197.048346 L22.7338422,197.048346 Z"></path>
		<path d="M252.352163,200.956743 L240.040712,200.956743 C237.044275,200.956743 234.373537,199.393384 232.810178,197.048346 L210.858015,168.842748 L232.810178,140.63715 C234.373537,138.292112 237.044275,136.728753 240.040712,136.728753 L255.348601,136.728753 L255.348601,192.61883 C255.348601,195.615267 254.306361,198.416285 252.612723,200.631043 L252.612723,200.631043 L252.352163,200.956743 Z M22.7338422,197.048346 C21.1704835,199.393384 18.4997455,200.956743 15.5033079,200.956743 L3.19185751,200.956743 L8.27277354,207.991858 L2.93129771,200.696183 C1.23765903,198.481425 0.195419847,195.745547 0.195419847,192.683969 L0.195419847,136.663613 L15.5033079,136.663613 C18.4997455,136.663613 21.1704835,138.226972 22.7338422,140.57201 L44.6860051,168.842748 L22.7338422,197.048346 L22.7338422,197.048346 Z" fill="#664C9E"></path>
		<path d="M164.217812,321.921628 L127.73944,275.151145 L91.3262087,321.921628 L164.217812,321.921628 L164.217812,321.921628 Z"></path>
		<path d="M164.413232,321.726209 L130.084478,369.017812 C130.084478,369.017812 129.498219,369.994911 127.80458,369.994911 L127.80458,369.994911 C127.80458,369.994911 127.80458,369.994911 127.73944,369.994911 C127.73944,369.994911 127.73944,369.994911 127.6743,369.994911 L127.6743,369.994911 C126.045802,369.929771 125.394402,369.017812 125.394402,369.017812 L91.0656489,321.726209 L164.413232,321.726209 L164.413232,321.726209 Z" fill="#42307C"></path>
		<path d="M90.935369,228.185242 L127.80458,275.541985 L91.3913486,322.312468 L91.0005089,321.726209 L90.935369,228.185242 L90.935369,228.185242 Z M164.282952,321.791349 L164.282952,321.791349 L164.282952,322.182188 L164.217812,322.247328 L127.86972,275.541985 L164.282952,228.706361 L164.282952,321.791349 L164.282952,321.791349 Z" fill="#45327E"></path>
		<path d="M210.858015,258.019338 L210.858015,168.842748 L232.810178,197.048346 C234.373537,199.393384 237.044275,200.956743 240.040712,200.956743 L252.352163,200.956743 L210.858015,258.019338 L210.858015,258.019338 Z M44.2951654,257.498219 L3.25699746,200.956743 L15.5684478,200.956743 C18.5648855,200.956743 21.2356234,199.393384 22.7989822,197.048346 L44.2951654,169.298728 L44.2951654,257.498219 L44.2951654,257.498219 Z" fill="#584094"></path>
		<path d="M226.947583,96.9282443 L226.947583,96.9282443 L210.988295,120.704326 L210.858015,120.704326 L210.858015,259.517557 C210.858015,260.429517 210.467176,261.211196 209.880916,261.732316 L209.880916,261.927735 L167.735369,320.09771 L167.670229,320.09771 C166.95369,321.270229 165.716031,322.117048 164.217812,322.117048 L164.217812,314.169975 L164.217812,175.552163 L129.823919,219.912468 L129.758779,219.912468 C129.237659,220.498728 128.39084,220.889567 127.54402,220.889567 L127.54402,220.889567 C126.632061,220.889567 125.915522,220.498728 125.329262,219.912468 L125.264122,219.912468 L90.870229,175.552163 L90.870229,314.104835 L90.870229,322.051908 C89.4371501,322.051908 88.1343511,321.270229 87.4178117,320.03257 L87.3526718,320.03257 L45.3374046,261.862595 L45.3374046,261.667176 C44.751145,261.146056 44.3603053,260.299237 44.3603053,259.452417 L44.3603053,120.704326 L44.2300254,120.704326 L28.205598,96.9282443 L28.2707379,96.9282443 C27.7496183,96.2117048 27.4890585,95.3648855 27.4890585,94.3877863 C27.4890585,91.9776081 29.378117,89.9582697 31.7882952,89.9582697 L31.7882952,89.9582697 L79.9918575,89.9582697 L79.9918575,90.0234097 C81.2946565,90.1536896 82.4671756,90.870229 83.1185751,91.9124682 L127.60916,149.496183 L172.034606,91.9124682 C172.751145,90.870229 173.858524,90.2188295 175.161323,90.0234097 L175.161323,89.9582697 L223.364885,89.9582697 C225.775064,90.0234097 227.664122,91.9776081 227.664122,94.3877863 C227.729262,95.3648855 227.468702,96.2768448 226.947583,96.9282443 L226.947583,96.9282443 Z" fill="#FFFFFF"></path>
	</g>
</svg>

<svg width="256" height="371" xmlns="http://www.w3.org/2000/svg" preserveAspectRatio="xMidYMid"><path d="M240.04 137.12c-2.996 0-5.666 1.563-7.23 3.908L127.805 276.063v.065l-.066-.065v-.13l-.065.065v-.065L22.734 140.898c-1.564-2.345-4.234-3.909-7.23-3.909H.26v55.63-65.14C.26 57.258 57.128.326 127.283.326h1.042c70.156 0 127.024 56.932 127.024 127.153v9.575H240.04v.066z" fill="#CB3366"/><path d="M90.935 175.552l34.394 44.36h.065a2.94 2.94 0 002.215.978 2.94 2.94 0 002.215-.978h.065l34.394-44.36v53.22l-36.348 46.705-.196-.26v.064l-.195.261-36.674-47.096.065-52.894zm36.87 100.12l-.196-.195H128l-.195.195z" fill="#B2345B"/><path d="M127.61 149.496l-33.808-43.839 33.807-43.448.196.26v.065l.195-.26 33.612 43.188-34.003 44.034zm.13-87.483l.195.26h-.391l.195-.26z" fill="#BF3C65"/><path d="M127.805 62.47l-.196-.261.13-.196v-.065l.066.065.065-.065v.065l.13.26-.195.196zM22.734 140.506c-1.564-2.345-4.234-3.909-7.23-3.909H.26v-9.054c0-46.9 25.339-87.874 63.12-109.891 20.975.521 39.345 11.139 50.614 27.163h.065l13.55 17.458-82.924 106.504-21.952-28.271zm118.815-95.69h.065c11.27-16.09 29.639-26.708 50.549-27.23 37.781 22.083 63.12 63.056 63.12 109.892v9.185h-15.307c-2.997 0-5.668 1.563-7.231 3.908l-21.952 28.206-82.858-106.504 13.614-17.458z" fill="#CF406E"/><path d="M192.619 17.848c.977.587 1.889 1.173 2.866 1.694-.977-.521-1.89-1.107-2.866-1.694zm-51.005 26.968h-.065L128 62.274l-.13-.26v-.066l-.065.065-.066-.065v.065l-.13.196-13.614-17.393h-.065c-11.204-16.024-29.704-26.642-50.614-27.163C82.076 6.709 103.898.39 127.218.39h1.042c23.32 0 45.143 6.253 63.903 17.262-20.91.456-39.28 11.139-50.549 27.163zM127.87 62.404l.13-.13.13.13h-.26zm-.391 0l.13-.13.13.13h-.26zM62.925 17.848c-.977.587-1.889 1.173-2.866 1.694.977-.521 1.89-1.107 2.866-1.694zm.456-.195c-.13.065-.26.13-.39.26.064-.13.195-.195.39-.26zm128.782 0c.13.065.26.13.39.26-.064-.13-.195-.195-.39-.26z" fill="#D8517D"/><path d="M.26 136.664h15.308c2.997 0 5.668 1.563 7.231 3.908l104.94 134.97v.065l.066-.065v.13l.065.065v-.065l105.005-135.1c1.564-2.345 4.234-3.908 7.23-3.908h15.309v55.89c0 2.996-1.042 5.797-2.736 8.012L130.215 369.278s-.587.977-2.28.977h-.13c-1.629-.065-2.28-.977-2.28-.977L3.062 200.566c-1.694-2.215-2.736-4.95-2.736-8.012v-55.89H.26z" fill="#4B3785"/><path d="M252.352 200.957h-12.311c-2.997 0-5.667-1.564-7.23-3.909l-21.953-28.205 21.952-28.206c1.564-2.345 4.234-3.908 7.23-3.908h15.309v55.89c0 2.996-1.043 5.797-2.736 8.012l-.26.326zm-229.618-3.909c-1.564 2.345-4.234 3.909-7.23 3.909H3.191l5.08 7.035-5.34-7.296c-1.694-2.215-2.737-4.95-2.737-8.012v-56.02h15.308c2.997 0 5.667 1.563 7.23 3.908l21.953 28.27-21.952 28.206z"/><path d="M252.352 200.957h-12.311c-2.997 0-5.667-1.564-7.23-3.909l-21.953-28.205 21.952-28.206c1.564-2.345 4.234-3.908 7.23-3.908h15.309v55.89c0 2.996-1.043 5.797-2.736 8.012l-.26.326zm-229.618-3.909c-1.564 2.345-4.234 3.909-7.23 3.909H3.191l5.08 7.035-5.34-7.296c-1.694-2.215-2.737-4.95-2.737-8.012v-56.02h15.308c2.997 0 5.667 1.563 7.23 3.908l21.953 28.27-21.952 28.206z" fill="#664C9E"/><path d="M164.218 321.922l-36.479-46.77-36.413 46.77h72.892z"/><path d="M164.413 321.726l-34.329 47.292s-.586.977-2.28.977h-.13c-1.628-.065-2.28-.977-2.28-.977l-34.328-47.292h73.347z" fill="#42307C"/><path d="M90.935 228.185l36.87 47.357-36.414 46.77-.39-.586-.066-93.54zm73.348 93.606v.391l-.065.065-36.348-46.705 36.413-46.836v93.085z" fill="#45327E"/><path d="M210.858 258.02v-89.177l21.952 28.205c1.564 2.345 4.234 3.909 7.23 3.909h12.312l-41.494 57.062zm-166.563-.522L3.257 200.957h12.311c2.997 0 5.668-1.564 7.231-3.909l21.496-27.75v88.2z" fill="#584094"/><path d="M226.948 96.928l-15.96 23.776h-.13v138.814a2.94 2.94 0 01-.977 2.214v.196l-42.146 58.17h-.065c-.716 1.172-1.954 2.019-3.452 2.019V175.552l-34.394 44.36h-.065c-.521.587-1.368.978-2.215.978-.912 0-1.628-.391-2.215-.978h-.065l-34.394-44.36v146.5c-1.433 0-2.736-.782-3.452-2.02h-.065l-42.016-58.17v-.195c-.586-.52-.977-1.368-.977-2.215V120.704h-.13L28.206 96.928h.065c-.521-.716-.782-1.563-.782-2.54 0-2.41 1.89-4.43 4.3-4.43h48.203v.065c1.303.13 2.475.847 3.127 1.89l44.49 57.583 44.426-57.584c.716-1.042 1.824-1.693 3.126-1.889v-.065h48.204c2.41.065 4.3 2.02 4.3 4.43.064.977-.196 1.889-.717 2.54z" fill="#FFF"/></svg>
